images/50649064.svg

<?xml version="1.0" encoding="UTF-8"?>
<svg xmlns="http://www.w3.org/2000/svg" xmlns:xlink="http://www.w3.org/1999/xlink" width="300pt" height="300pt" viewBox="0 0 300 300" version="1.1">
<defs>
<g>
<symbol overflow="visible" id="glyph0-0">
<path style="stroke:none;" d="M 0.546875 1.9375 L 0.546875 -7.75 L 6.046875 -7.75 L 6.046875 1.9375 Z M 1.171875 1.328125 L 5.4375 1.328125 L 5.4375 -7.140625 L 1.171875 -7.140625 Z M 1.171875 1.328125 "/>
</symbol>
<symbol overflow="visible" id="glyph0-1">
<path style="stroke:none;" d="M 4.328125 -7.28125 C 3.546875 -7.28125 2.921875 -6.984375 2.453125 -6.390625 C 1.992188 -5.804688 1.765625 -5.007812 1.765625 -4 C 1.765625 -2.988281 1.992188 -2.1875 2.453125 -1.59375 C 2.921875 -1.007812 3.546875 -0.71875 4.328125 -0.71875 C 5.117188 -0.71875 5.742188 -1.007812 6.203125 -1.59375 C 6.660156 -2.1875 6.890625 -2.988281 6.890625 -4 C 6.890625 -5.007812 6.660156 -5.804688 6.203125 -6.390625 C 5.742188 -6.984375 5.117188 -7.28125 4.328125 -7.28125 Z M 4.328125 -8.171875 C 5.453125 -8.171875 6.351562 -7.789062 7.03125 -7.03125 C 7.707031 -6.28125 8.046875 -5.269531 8.046875 -4 C 8.046875 -2.738281 7.707031 -1.726562 7.03125 -0.96875 C 6.351562 -0.21875 5.453125 0.15625 4.328125 0.15625 C 3.203125 0.15625 2.300781 -0.21875 1.625 -0.96875 C 0.957031 -1.71875 0.625 -2.726562 0.625 -4 C 0.625 -5.269531 0.957031 -6.28125 1.625 -7.03125 C 2.300781 -7.789062 3.203125 -8.171875 4.328125 -8.171875 Z M 4.328125 -8.171875 "/>
</symbol>
<symbol overflow="visible" id="glyph0-2">
<path style="stroke:none;" d="M 1.078125 -8.015625 L 2.171875 -8.015625 L 2.171875 -4.734375 L 6.109375 -4.734375 L 6.109375 -8.015625 L 7.1875 -8.015625 L 7.1875 0 L 6.109375 0 L 6.109375 -3.8125 L 2.171875 -3.8125 L 2.171875 0 L 1.078125 0 Z M 1.078125 -8.015625 "/>
</symbol>
<symbol overflow="visible" id="glyph0-3">
<path style="stroke:none;" d="M 1.078125 -8.015625 L 2.546875 -8.015625 L 6.09375 -1.3125 L 6.09375 -8.015625 L 7.15625 -8.015625 L 7.15625 0 L 5.6875 0 L 2.125 -6.703125 L 2.125 0 L 1.078125 0 Z M 1.078125 -8.015625 "/>
</symbol>
<symbol overflow="visible" id="glyph1-0">
<path style="stroke:none;" d="M 0.453125 1.59375 L 0.453125 -6.34375 L 4.953125 -6.34375 L 4.953125 1.59375 Z M 0.953125 1.09375 L 4.453125 1.09375 L 4.453125 -5.84375 L 0.953125 -5.84375 Z M 0.953125 1.09375 "/>
</symbol>
<symbol overflow="visible" id="glyph1-1">
<path style="stroke:none;" d="M 1.734375 -0.75 L 4.828125 -0.75 L 4.828125 0 L 0.65625 0 L 0.65625 -0.75 C 1 -1.09375 1.457031 -1.554688 2.03125 -2.140625 C 2.613281 -2.734375 2.984375 -3.113281 3.140625 -3.28125 C 3.421875 -3.601562 3.613281 -3.875 3.71875 -4.09375 C 3.832031 -4.320312 3.890625 -4.539062 3.890625 -4.75 C 3.890625 -5.101562 3.769531 -5.390625 3.53125 -5.609375 C 3.289062 -5.828125 2.972656 -5.9375 2.578125 -5.9375 C 2.296875 -5.9375 2 -5.882812 1.6875 -5.78125 C 1.382812 -5.6875 1.054688 -5.539062 0.703125 -5.34375 L 0.703125 -6.25 C 1.054688 -6.382812 1.390625 -6.488281 1.703125 -6.5625 C 2.015625 -6.644531 2.300781 -6.6875 2.5625 -6.6875 C 3.238281 -6.6875 3.78125 -6.515625 4.1875 -6.171875 C 4.59375 -5.828125 4.796875 -5.375 4.796875 -4.8125 C 4.796875 -4.539062 4.742188 -4.28125 4.640625 -4.03125 C 4.535156 -3.789062 4.351562 -3.507812 4.09375 -3.1875 C 4.019531 -3.101562 3.785156 -2.859375 3.390625 -2.453125 C 2.992188 -2.046875 2.441406 -1.476562 1.734375 -0.75 Z M 1.734375 -0.75 "/>
</symbol>
</g>
</defs>
<g id="surface12009">
<rect x="0" y="0" width="300" height="300" style="fill:rgb(100%,100%,100%);fill-opacity:1;stroke:none;"/>
<path style="fill:none;stroke-width:1.2;stroke-linecap:butt;stroke-linejoin:miter;stroke:rgb(100%,0%,0%);stroke-opacity:1;stroke-miterlimit:10;" d="M 193.808594 215.679688 L 182.546875 208.53125 "/>
<path style="fill:none;stroke-width:1.2;stroke-linecap:butt;stroke-linejoin:miter;stroke:rgb(0%,0%,0%);stroke-opacity:1;stroke-miterlimit:10;" d="M 182.546875 208.53125 L 171.28125 201.382812 "/>
<path style=" stroke:none;fill-rule:nonzero;fill:rgb(100%,100%,100%);fill-opacity:1;" d="M 185.808594 209.179688 L 202.808594 209.179688 L 202.808594 222.179688 L 185.808594 222.179688 Z M 185.808594 209.179688 "/>
<g style="fill:rgb(100%,0%,0%);fill-opacity:1;">
  <use xlink:href="#glyph0-1" x="185.808594" y="219.081055"/>
  <use xlink:href="#glyph0-2" x="194.208984" y="219.081055"/>
</g>
<path style="fill:none;stroke-width:1.2;stroke-linecap:butt;stroke-linejoin:miter;stroke:rgb(0%,0%,0%);stroke-opacity:1;stroke-miterlimit:10;" d="M 171.28125 201.382812 L 147.636719 213.742188 "/>
<path style="fill:none;stroke-width:1.2;stroke-linecap:butt;stroke-linejoin:miter;stroke:rgb(0%,0%,0%);stroke-opacity:1;stroke-miterlimit:10;" d="M 166.007812 197.054688 L 147.089844 206.941406 "/>
<path style="fill:none;stroke-width:1.2;stroke-linecap:butt;stroke-linejoin:miter;stroke:rgb(0%,0%,0%);stroke-opacity:1;stroke-miterlimit:10;" d="M 172.398438 174.722656 L 171.28125 201.382812 "/>
<path style="fill:none;stroke-width:1.2;stroke-linecap:butt;stroke-linejoin:miter;stroke:rgb(0%,0%,0%);stroke-opacity:1;stroke-miterlimit:10;" d="M 147.636719 213.742188 L 125.105469 199.445312 "/>
<path style="fill:none;stroke-width:1.2;stroke-linecap:butt;stroke-linejoin:miter;stroke:rgb(0%,0%,0%);stroke-opacity:1;stroke-miterlimit:10;" d="M 125.105469 199.445312 L 126.226562 172.785156 "/>
<path style="fill:none;stroke-width:1.2;stroke-linecap:butt;stroke-linejoin:miter;stroke:rgb(0%,0%,0%);stroke-opacity:1;stroke-miterlimit:10;" d="M 131.492188 197.042969 L 132.386719 175.714844 "/>
<path style="fill:none;stroke-width:1.2;stroke-linecap:butt;stroke-linejoin:miter;stroke:rgb(0%,0%,0%);stroke-opacity:1;stroke-miterlimit:10;" d="M 126.226562 172.785156 L 114.960938 165.636719 "/>
<path style="fill:none;stroke-width:1.2;stroke-linecap:butt;stroke-linejoin:miter;stroke:rgb(0%,0%,100%);stroke-opacity:1;stroke-miterlimit:10;" d="M 114.960938 165.636719 L 103.695312 158.488281 "/>
<path style="fill:none;stroke-width:1.2;stroke-linecap:butt;stroke-linejoin:miter;stroke:rgb(0%,0%,0%);stroke-opacity:1;stroke-miterlimit:10;" d="M 126.226562 172.785156 L 149.871094 160.425781 "/>
<path style="fill:none;stroke-width:1.2;stroke-linecap:butt;stroke-linejoin:miter;stroke:rgb(0%,0%,100%);stroke-opacity:1;stroke-miterlimit:10;" d="M 103.695312 158.488281 L 91.292969 163.398438 "/>
<path style="fill:none;stroke-width:1.2;stroke-linecap:butt;stroke-linejoin:miter;stroke:rgb(0%,0%,0%);stroke-opacity:1;stroke-miterlimit:10;" d="M 91.292969 163.398438 L 78.886719 168.308594 "/>
<path style="fill:none;stroke-width:1.2;stroke-linecap:butt;stroke-linejoin:miter;stroke:rgb(0%,0%,0%);stroke-opacity:1;stroke-miterlimit:10;" d="M 102.023438 131.859375 L 102.859375 145.171875 "/>
<path style="fill:none;stroke-width:1.2;stroke-linecap:butt;stroke-linejoin:miter;stroke:rgb(0%,0%,100%);stroke-opacity:1;stroke-miterlimit:10;" d="M 102.859375 145.171875 L 103.695312 158.488281 "/>
<path style=" stroke:none;fill-rule:nonzero;fill:rgb(100%,100%,100%);fill-opacity:1;" d="M 99.695312 151.988281 L 107.695312 151.988281 L 107.695312 164.988281 L 99.695312 164.988281 Z M 99.695312 151.988281 "/>
<g style="fill:rgb(0%,0%,100%);fill-opacity:1;">
  <use xlink:href="#glyph0-3" x="99.695312" y="161.889648"/>
</g>
<path style="fill:none;stroke-width:1.2;stroke-linecap:butt;stroke-linejoin:miter;stroke:rgb(0%,0%,0%);stroke-opacity:1;stroke-miterlimit:10;" d="M 78.886719 168.308594 L 61.878906 147.75 "/>
<path style="fill:none;stroke-width:1;stroke-linecap:butt;stroke-linejoin:miter;stroke:rgb(0%,0%,0%);stroke-opacity:1;stroke-miterlimit:10;" d="M 61.878906 147.75 L 61.878906 147.75 M 58.898438 147.414062 L 58.964844 148.457031 M 55.917969 147.078125 L 56.046875 149.160156 M 52.9375 146.746094 L 53.132812 149.867188 M 49.953125 146.410156 L 50.214844 150.574219 M 46.972656 146.074219 L 47.300781 151.277344 M 43.992188 145.738281 L 44.386719 151.984375 M 41.011719 145.40625 L 41.46875 152.691406 M 38.03125 145.070312 L 38.554688 153.394531 M 35.046875 144.734375 L 35.636719 154.101562 M 34.953125 144.722656 L 35.546875 154.125 "/>
<path style="fill:none;stroke-width:1.2;stroke-linecap:butt;stroke-linejoin:miter;stroke:rgb(0%,0%,0%);stroke-opacity:1;stroke-miterlimit:10;" d="M 61.878906 147.75 L 76.179688 125.222656 "/>
<path style=" stroke:none;fill-rule:nonzero;fill:rgb(100%,100%,100%);fill-opacity:1;" d="M 18.25 142.925781 L 35.25 142.925781 L 35.25 155.925781 L 18.25 155.925781 Z M 18.25 142.925781 "/>
<g style="fill:rgb(100%,0%,0%);fill-opacity:1;">
  <use xlink:href="#glyph0-2" x="18.25" y="152.827148"/>
  <use xlink:href="#glyph0-1" x="26.274414" y="152.827148"/>
</g>
<path style=" stroke:none;fill-rule:nonzero;fill:rgb(0%,0%,0%);fill-opacity:1;" d="M 76.179688 125.222656 L 70.734375 98.679688 L 61.976562 102.144531 Z M 76.179688 125.222656 "/>
<path style="fill:none;stroke-width:1.2;stroke-linecap:butt;stroke-linejoin:miter;stroke:rgb(0%,0%,0%);stroke-opacity:1;stroke-miterlimit:10;" d="M 76.179688 125.222656 L 102.023438 131.859375 "/>
<path style=" stroke:none;fill-rule:nonzero;fill:rgb(100%,100%,100%);fill-opacity:1;" d="M 49.355469 93.910156 L 66.355469 93.910156 L 66.355469 106.910156 L 49.355469 106.910156 Z M 49.355469 93.910156 "/>
<g style="fill:rgb(100%,0%,0%);fill-opacity:1;">
  <use xlink:href="#glyph0-2" x="49.355469" y="103.811523"/>
  <use xlink:href="#glyph0-1" x="57.379883" y="103.811523"/>
</g>
<path style="fill:none;stroke-width:1.2;stroke-linecap:butt;stroke-linejoin:miter;stroke:rgb(0%,0%,0%);stroke-opacity:1;stroke-miterlimit:10;" d="M 149.871094 160.425781 L 172.398438 174.722656 "/>
<path style="fill:none;stroke-width:1.2;stroke-linecap:butt;stroke-linejoin:miter;stroke:rgb(0%,0%,0%);stroke-opacity:1;stroke-miterlimit:10;" d="M 148.761719 167.15625 L 166.78125 178.59375 "/>
<path style="fill:none;stroke-width:1.2;stroke-linecap:butt;stroke-linejoin:miter;stroke:rgb(0%,0%,0%);stroke-opacity:1;stroke-miterlimit:10;" d="M 172.398438 174.722656 L 196.046875 162.359375 "/>
<path style="fill:none;stroke-width:1.2;stroke-linecap:butt;stroke-linejoin:miter;stroke:rgb(0%,0%,0%);stroke-opacity:1;stroke-miterlimit:10;" d="M 196.046875 162.359375 L 207.3125 169.511719 "/>
<path style="fill:none;stroke-width:1.2;stroke-linecap:butt;stroke-linejoin:miter;stroke:rgb(0%,0%,100%);stroke-opacity:1;stroke-miterlimit:10;" d="M 207.3125 169.511719 L 218.574219 176.660156 "/>
<path style="fill:none;stroke-width:1.2;stroke-linecap:butt;stroke-linejoin:miter;stroke:rgb(0%,0%,0%);stroke-opacity:1;stroke-miterlimit:10;" d="M 201.664062 158.488281 L 210.675781 164.210938 "/>
<path style="fill:none;stroke-width:1.2;stroke-linecap:butt;stroke-linejoin:miter;stroke:rgb(0%,0%,100%);stroke-opacity:1;stroke-miterlimit:10;" d="M 210.675781 164.210938 L 219.6875 169.929688 "/>
<path style="fill:none;stroke-width:1.2;stroke-linecap:butt;stroke-linejoin:miter;stroke:rgb(0%,0%,0%);stroke-opacity:1;stroke-miterlimit:10;" d="M 197.164062 135.703125 L 196.046875 162.359375 "/>
<path style="fill:none;stroke-width:1.2;stroke-linecap:butt;stroke-linejoin:miter;stroke:rgb(0%,0%,100%);stroke-opacity:1;stroke-miterlimit:10;" d="M 218.574219 176.660156 L 230.398438 170.480469 "/>
<path style="fill:none;stroke-width:1.2;stroke-linecap:butt;stroke-linejoin:miter;stroke:rgb(0%,0%,0%);stroke-opacity:1;stroke-miterlimit:10;" d="M 230.398438 170.480469 L 242.222656 164.296875 "/>
<path style=" stroke:none;fill-rule:nonzero;fill:rgb(100%,100%,100%);fill-opacity:1;" d="M 214.574219 170.160156 L 222.574219 170.160156 L 222.574219 183.160156 L 214.574219 183.160156 Z M 214.574219 170.160156 "/>
<g style="fill:rgb(0%,0%,100%);fill-opacity:1;">
  <use xlink:href="#glyph0-3" x="214.574219" y="180.061523"/>
</g>
<path style="fill:none;stroke-width:1.2;stroke-linecap:butt;stroke-linejoin:miter;stroke:rgb(0%,0%,0%);stroke-opacity:1;stroke-miterlimit:10;" d="M 242.222656 164.296875 L 242.78125 150.96875 "/>
<path style="fill:none;stroke-width:1.2;stroke-linecap:butt;stroke-linejoin:miter;stroke:rgb(0%,0%,100%);stroke-opacity:1;stroke-miterlimit:10;" d="M 242.78125 150.96875 L 243.339844 137.640625 "/>
<path style="fill:none;stroke-width:1.2;stroke-linecap:butt;stroke-linejoin:miter;stroke:rgb(0%,0%,0%);stroke-opacity:1;stroke-miterlimit:10;" d="M 236.0625 161.367188 L 236.507812 150.707031 "/>
<path style="fill:none;stroke-width:1.2;stroke-linecap:butt;stroke-linejoin:miter;stroke:rgb(0%,0%,100%);stroke-opacity:1;stroke-miterlimit:10;" d="M 236.507812 150.707031 L 236.957031 140.042969 "/>
<path style="fill:none;stroke-width:1.2;stroke-linecap:butt;stroke-linejoin:miter;stroke:rgb(0%,0%,0%);stroke-opacity:1;stroke-miterlimit:10;" d="M 242.222656 164.296875 L 253.484375 171.445312 "/>
<path style="fill:none;stroke-width:1.2;stroke-linecap:butt;stroke-linejoin:miter;stroke:rgb(0%,0%,100%);stroke-opacity:1;stroke-miterlimit:10;" d="M 253.484375 171.445312 L 264.75 178.597656 "/>
<path style="fill:none;stroke-width:1.2;stroke-linecap:butt;stroke-linejoin:miter;stroke:rgb(0%,0%,100%);stroke-opacity:1;stroke-miterlimit:10;" d="M 243.339844 137.640625 L 232.074219 130.488281 "/>
<path style="fill:none;stroke-width:1.2;stroke-linecap:butt;stroke-linejoin:miter;stroke:rgb(0%,0%,0%);stroke-opacity:1;stroke-miterlimit:10;" d="M 232.074219 130.488281 L 220.8125 123.339844 "/>
<path style=" stroke:none;fill-rule:nonzero;fill:rgb(100%,100%,100%);fill-opacity:1;" d="M 239.339844 131.140625 L 247.339844 131.140625 L 247.339844 144.140625 L 239.339844 144.140625 Z M 239.339844 131.140625 "/>
<g style="fill:rgb(0%,0%,100%);fill-opacity:1;">
  <use xlink:href="#glyph0-3" x="239.339844" y="141.041992"/>
</g>
<path style="fill:none;stroke-width:1.2;stroke-linecap:butt;stroke-linejoin:miter;stroke:rgb(0%,0%,0%);stroke-opacity:1;stroke-miterlimit:10;" d="M 220.8125 123.339844 L 197.164062 135.703125 "/>
<path style="fill:none;stroke-width:1.2;stroke-linecap:butt;stroke-linejoin:miter;stroke:rgb(0%,0%,0%);stroke-opacity:1;stroke-miterlimit:10;" d="M 221.355469 130.140625 L 202.4375 140.03125 "/>
<path style="fill:none;stroke-width:1.2;stroke-linecap:butt;stroke-linejoin:miter;stroke:rgb(0%,0%,0%);stroke-opacity:1;stroke-miterlimit:10;" d="M 220.8125 123.339844 L 221.929688 96.683594 "/>
<path style="fill:none;stroke-width:1.2;stroke-linecap:butt;stroke-linejoin:miter;stroke:rgb(0%,0%,0%);stroke-opacity:1;stroke-miterlimit:10;" d="M 221.929688 96.683594 L 245.578125 84.320312 "/>
<path style=" stroke:none;fill-rule:nonzero;fill:rgb(100%,100%,100%);fill-opacity:1;" d="M 253.75 170.097656 L 275.75 170.097656 L 275.75 187.097656 L 253.75 187.097656 Z M 253.75 170.097656 "/>
<g style="fill:rgb(0%,0%,100%);fill-opacity:1;">
  <use xlink:href="#glyph0-3" x="253.75" y="179.999023"/>
  <use xlink:href="#glyph0-2" x="261.733398" y="179.999023"/>
</g>
<g style="fill:rgb(0%,0%,100%);fill-opacity:1;">
  <use xlink:href="#glyph1-1" x="269.757812" y="184.881836"/>
</g>
</g>
</svg>

<svg xmlns="http://www.w3.org/2000/svg" xmlns:xlink="http://www.w3.org/1999/xlink" width="300pt" height="300pt" viewBox="0 0 300 300"><defs><symbol overflow="visible"><path d="M.547 1.938V-7.75h5.5v9.688zm.625-.61h4.266v-8.47H1.171zm0 0"/></symbol><symbol overflow="visible" id="a"><path d="M4.328-7.28c-.78 0-1.406.296-1.875.89-.46.585-.687 1.382-.687 2.39 0 1.012.226 1.813.687 2.406.47.586 1.094.875 1.875.875.79 0 1.414-.288 1.875-.874.457-.593.688-1.394.688-2.406 0-1.008-.23-1.805-.687-2.39-.46-.594-1.086-.89-1.875-.89zm0-.892c1.125 0 2.024.383 2.703 1.14C7.708-6.28 8.048-5.27 8.048-4c0 1.262-.34 2.273-1.016 3.03C6.353-.22 5.454.157 4.33.157S2.3-.22 1.625-.97c-.668-.75-1-1.757-1-3.03 0-1.27.332-2.28 1-3.03.676-.76 1.578-1.142 2.703-1.142zm0 0"/></symbol><symbol overflow="visible" id="b"><path d="M1.078-8.016h1.094v3.282H6.11v-3.282h1.077V0H6.11v-3.813H2.17V0H1.078zm0 0"/></symbol><symbol overflow="visible" id="c"><path d="M1.078-8.016h1.47l3.546 6.704v-6.704h1.062V0H5.688L2.124-6.703V0H1.078zm0 0"/></symbol><symbol overflow="visible"><path d="M.453 1.594v-7.938h4.5v7.938zm.5-.5h3.5v-6.938h-3.5zm0 0"/></symbol><symbol overflow="visible" id="d"><path d="M1.734-.75h3.094V0H.656v-.75c.344-.344.8-.805 1.375-1.39.583-.594.954-.973 1.11-1.14.282-.322.473-.595.58-.814.112-.226.17-.445.17-.656 0-.352-.12-.64-.36-.86-.24-.218-.557-.327-.952-.327-.28 0-.578.054-.89.156-.305.093-.633.24-.985.436v-.906c.352-.133.688-.238 1-.313.313-.082.598-.125.86-.125.675 0 1.218.172 1.624.516.407.344.61.797.61 1.36 0 .273-.055.53-.156.78-.105.243-.288.524-.546.845-.074.085-.31.328-.703.734-.398.406-.95.976-1.656 1.703zm0 0"/></symbol></defs><g><path fill="#fff" d="M0 0h300v300H0z"/><path d="M193.81 215.68l-11.263-7.15" stroke-width="1.2" stroke="#f00" stroke-miterlimit="10" fill="none"/><path d="M182.547 208.53l-11.266-7.147" stroke-width="1.2" stroke="#000" stroke-miterlimit="10" fill="none"/><path d="M185.81 209.18h17v13h-17zm0 0" fill="#fff"/><g fill="#f00"><use xlink:href="#a" x="185.809" y="219.081"/><use xlink:href="#b" x="194.209" y="219.081"/></g><path d="M171.28 201.383l-23.643 12.36M166.008 197.055l-18.918 9.886M172.398 174.723l-1.117 26.66M147.637 213.742l-22.532-14.297M125.105 199.445l1.122-26.66M131.492 197.043l.895-21.328M126.227 172.785l-11.266-7.148" stroke-width="1.2" stroke="#000" stroke-miterlimit="10" fill="none"/><path d="M114.96 165.637l-11.265-7.15" stroke-width="1.2" stroke="#00f" stroke-miterlimit="10" fill="none"/><path d="M126.227 172.785l23.644-12.36" stroke-width="1.2" stroke="#000" stroke-miterlimit="10" fill="none"/><path d="M103.695 158.488l-12.402 4.91" stroke-width="1.2" stroke="#00f" stroke-miterlimit="10" fill="none"/><path d="M91.293 163.398l-12.406 4.91M102.023 131.86l.836 13.312" stroke-width="1.2" stroke="#000" stroke-miterlimit="10" fill="none"/><path d="M102.86 145.172l.835 13.316" stroke-width="1.2" stroke="#00f" stroke-miterlimit="10" fill="none"/><path d="M99.695 151.988h8v13h-8zm0 0" fill="#fff"/><use xlink:href="#c" x="99.695" y="161.89" fill="#00f"/><path d="M78.887 168.31L61.88 147.75" stroke-width="1.2" stroke="#000" stroke-miterlimit="10" fill="none"/><path d="M61.88 147.75m-2.982-.336l.067 1.043m-3.047-1.38l.13 2.083m-3.11-2.414l.195 3.12m-3.18-3.456l.262 4.164m-3.242-4.5l.328 5.203m-3.308-5.54l.395 6.247m-3.375-6.578l.457 7.285m-3.44-7.62l.525 8.325m-3.508-8.66l.59 9.367m-.684-9.38l.594 9.403" stroke="#000" stroke-miterlimit="10" fill="none"/><path d="M61.88 147.75l14.3-22.527" stroke-width="1.2" stroke="#000" stroke-miterlimit="10" fill="none"/><path d="M18.25 142.926h17v13h-17zm0 0" fill="#fff"/><g fill="#f00"><use xlink:href="#b" x="18.25" y="152.827"/><use xlink:href="#a" x="26.274" y="152.827"/></g><path d="M76.18 125.223L70.734 98.68l-8.757 3.465zm0 0"/><path d="M76.18 125.223l25.843 6.636" stroke-width="1.2" stroke="#000" stroke-miterlimit="10" fill="none"/><path d="M49.355 93.91h17v13h-17zm0 0" fill="#fff"/><g fill="#f00"><use xlink:href="#b" x="49.355" y="103.812"/><use xlink:href="#a" x="57.38" y="103.812"/></g><path d="M149.87 160.426l22.528 14.297M148.762 167.156l18.02 11.438M172.398 174.723l23.65-12.364M196.047 162.36l11.266 7.152" stroke-width="1.2" stroke="#000" stroke-miterlimit="10" fill="none"/><path d="M207.313 169.512l11.26 7.148" stroke-width="1.2" stroke="#00f" stroke-miterlimit="10" fill="none"/><path d="M201.664 158.488l9.012 5.723" stroke-width="1.2" stroke="#000" stroke-miterlimit="10" fill="none"/><path d="M210.676 164.21l9.012 5.72" stroke-width="1.2" stroke="#00f" stroke-miterlimit="10" fill="none"/><path d="M197.164 135.703l-1.117 26.656" stroke-width="1.2" stroke="#000" stroke-miterlimit="10" fill="none"/><path d="M218.574 176.66l11.824-6.18" stroke-width="1.2" stroke="#00f" stroke-miterlimit="10" fill="none"/><path d="M230.398 170.48l11.825-6.183" stroke-width="1.2" stroke="#000" stroke-miterlimit="10" fill="none"/><path d="M214.574 170.16h8v13h-8zm0 0" fill="#fff"/><use xlink:href="#c" x="214.574" y="180.062" fill="#00f"/><path d="M242.223 164.297l.558-13.328" stroke-width="1.2" stroke="#000" stroke-miterlimit="10" fill="none"/><path d="M242.78 150.97l.56-13.33" stroke-width="1.2" stroke="#00f" stroke-miterlimit="10" fill="none"/><path d="M236.063 161.367l.445-10.66" stroke-width="1.2" stroke="#000" stroke-miterlimit="10" fill="none"/><path d="M236.508 150.707l.45-10.664" stroke-width="1.2" stroke="#00f" stroke-miterlimit="10" fill="none"/><path d="M242.223 164.297l11.26 7.148" stroke-width="1.2" stroke="#000" stroke-miterlimit="10" fill="none"/><path d="M253.484 171.445l11.266 7.153M243.34 137.64l-11.266-7.152" stroke-width="1.2" stroke="#00f" stroke-miterlimit="10" fill="none"/><path d="M232.074 130.488l-11.262-7.148" stroke-width="1.2" stroke="#000" stroke-miterlimit="10" fill="none"/><path d="M239.34 131.14h8v13h-8zm0 0" fill="#fff"/><use xlink:href="#c" x="239.34" y="141.042" fill="#00f"/><path d="M220.813 123.34l-23.65 12.363M221.355 130.14l-18.917 9.89M220.813 123.34l1.117-26.656M221.93 96.684l23.648-12.364" stroke-width="1.2" stroke="#000" stroke-miterlimit="10" fill="none"/><path d="M253.75 170.098h22v17h-22zm0 0" fill="#fff"/><g fill="#00f"><use xlink:href="#c" x="253.75" y="179.999"/><use xlink:href="#b" x="261.733" y="179.999"/></g><use xlink:href="#d" x="269.758" y="184.882" fill="#00f"/></g></svg>
